packages/asc-assets/svg/Linkedin.svg

<?xml version="1.0" encoding="UTF-8"?>
<svg viewBox="0 0 32 32" version="1.1" xmlns="http://www.w3.org/2000/svg" xmlns:xlink="http://www.w3.org/1999/xlink">
    <path d="M11,10.4520548 L11,32 L17.6956522,32 L17.6956522,21.3013699 C17.6956522,18.4383562 18.3043478,15.7260274 21.8043478,15.7260274 C25.3043478,15.7260274 25.3043478,18.890411 25.3043478,21.4520548 L25.3043478,32 L32,32 L32,20.2465753 C32,14.369863 30.7826087,10 23.9347826,10 C20.5869565,10 18.4565217,11.8082192 17.5434783,13.4657534 L17.3913043,13.4657534 L17.3913043,10.4520548 L11,10.4520548 Z M0,11 L7,11 L7,32 L0,32 L0,11 Z M4,8 C1.790861,8 0,6.209139 0,4 C0,1.790861 1.790861,0 4,0 C6.209139,0 8,1.790861 8,4 C8,6.209139 6.209139,8 4,8 Z" id="path-1"></path>
</svg>

<svg viewBox="0 0 32 32"><path d="M11 10.45V32h6.7V21.3c0-2.86.6-5.57 4.1-5.57 3.5 0 3.5 3.16 3.5 5.72V32H32V20.25C32 14.37 30.78 10 23.93 10c-3.34 0-5.47 1.8-6.39 3.47h-.15v-3.02H11zM0 11h7v21H0V11zm4-3a4 4 0 1 1 0-8 4 4 0 0 1 0 8z"></path></svg>
